!!!ONB: MCCC : IJH0433_02 : Extracted Monophonic Melody
!!!COM: Haydn, Joseph
!!!OPR: String Quartet in D major
!!!OMV: 2
!!!SCT: Hob.III:79 ; Op.76 No.5
!!!ODT: 1796///
**kern
*thru
*k[f#c#g#d#a#e#]
*F#:
*clefF
*M4/4
4c#
=1
4f#
4a#
4cc#
8.a#
16f#
=2
4ff#
8.dd#
16b
4cc#
8.a#
16f#
=3
4e#
4f#
4b
4a#
=4
4.g#
8a#
8g#
8r
4c#
=5
4f#
4a#
4cc#
8.a#
16f#
=6
4ff#
8.dd#
16b
4cc#
8.a#
16f#
=7
2dd#
8d#
8e#
8f#
8g#
=8
2a#
8.g#
16f#
8.g#
16a#
=9
4f#
2r
8.r
16cc#
=10
8.g#
16c#
8.b
16a#
8g#
4r
16r
16cc#
=11
8.f#
16c#
8.a#
16g#
8f#
4r
16r
16cc#
=12
8.g#
16c#
8.b
16a#
8g#
4r
16r
16cc#
=13
8.a#
16f#
8.cc#
32a#
32cc#
8.ff#
16cc#
8.aa#
16gg#
=14
4ff#
8.ff#
16gg#
4ee#
8.aa#
16ff#
=15
4dd#
8.dd#
16ee#
4cc##
4a#
=16
4dd#
4ff#
4aa#
16gg#
16ff#
16ee#
16dd#
=17
2cc#
4b#
4r
=18
8.ee#
16g#
8.gg#
16ff#
8ee#
4r
16r
16g#
=19
8.dd#
16g#
8.ff#
16ee#
8dd#
4r
16r
16g#
=20
2gg#
4gg#
4gg#
=21
1gg#
=22
1gg#[
=23
2gg#]
2ff#[
=24
2ff#]
2ee#
=25
8.dd#
16ff#
8.aa#
16ff#
4dd#
4dd#
=26
2dd#[
8dd#]
8ee#
8ff#
8gg#
=27
2ff#
8.ee#
16ccc#
8.gg#
16ee#
=28
8.cc#
16cc#
8.g#
16e#
8.c#
16e#
8.g#
16e#
=29
8.d#
16f#
8.a#
16f#
4d#
4d#
=30
8.e
16a#
8.cc#
16a#
4e
4e
=31
8.e#
16g#
8.cc#
16g#
4ee#
16dd#
16cc#
16b#
16a#
=32
2g#[
8g#]
8f#
8e#
8d#
=33
4c#
2.r
=34
2..r
16r
16g#
=35
8.ee
16g#
8.gg#
16ff#
8ee
4r
16r
16g#
=36
8.dd#
16g#
8.ff#
16ee
8dd#
4r
16r
16g#
=37
8.ee
16g#
8.gg#
16ee
8.dd#
16g#
8.gg#
16dd#
=38
4cc#
8.dd#
16ee
4ff#
4ff##
=39
4gg#
4gg#
8ff#
8ee
8dd#
8cc#
=40
2.b#
4b
=41
4ee
4gg#
4bb
8.gg#
16ee
=42
4eee
8.ccc#
16aa
4bb
8.gg#
16ee
=43
4dd#
4ee
4aa
4gg#
=44
4.ff#
8gg#
8ff#
8r
4B
=45
4e
4g
4b
8.g
16e
=46
4d#
4f#
4b
8.f#
16d
=47
4c#
4e
4a
8.e
16c
=48
4B
4g
4f#
4e
=49
4.d
8e
4d
4d
=50
2.d
4r
=51
8b
8b
8b
8b
8b
8b
8b
8b
=52
8a
8a
8a
8a
8a
8a
8cc
8cc
=53
8b
8b
8b
8b
8b
8b
8b
8b
=54
8dd
8dd
8dd
8dd
8cc#
8cc#
8cc#
8cc#
=55
8cc#
8cc#
8cc#
8cc#
8cc#
8cc#
8cc#
8cc#
=56
8cc#
8cc#
8cc#
8cc#
8cc#
8cc#
8cc#
8cc#
=57
8cc#
8cc#
8cc#
8cc#
8cc#
8cc#
8cc#
8cc#
=58
8cc#
8cc#
8cc#
8cc#
8b#
8b#
8b#
8b#
=59
8cc#
8cc#
8cc#
8cc#
8cc#
8cc#
8cc#
8cc#
=60
8b#
8b#
8b#
8b#
8b#
8b#
8b#
8b#
=61
2cc#
4cc#
4cc#
=62
2.cc#
4c#
=63
4f#
4a#
4cc#
8.a#
16f#
=64
4ff#
8.dd#
16b
4cc#
8.a#
16f#
=65
4e#
4f#
4b
4a#
=66
4.g#
8a#
8g#
8r
4c#
=67
4f#
4a#
4cc#
8.a#
16f#
=68
4ff#
8.dd#
16b
4cc#
8.a#
16f#
=69
2dd#
8d#
8e#
8f#
8g#
=70
2a#
8.g#
16f#
8.g#
16a#
=71
4f#
8r
8f#
8e#
8f#
8g#
8a#
=72
2b
8.a#
16g#
8.a#
16b
=73
4g#
8r
8f##
8g#
8a#
8b
8cc#
=74
8.dd#
16cc#
4..gg#
16gg#
8.aa#
16bb
=75
8.aa#
16cc#
8.ccc#
16bb
8aa#
4r
16r
16aa#
=76
8.gg#
16cc#
8.bb
16aa#
8gg#
4r
16r
16cc#
=77
2ccc#
4ccc#
4ccc#
=78
1ccc#
=79
1ccc#[
=80
2ccc#]
2bb[
=81
2bb]
2aa#
=82
8.gg#
16bb
8.ddd#
16bb
4gg#
4gg#
=83
2gg#[
8gg#]
8aa#
8bb
8ccc#
=84
2bb
8.aa#
16fff#
8.ccc#
16aa#
=85
8.ff#
16ff#
8.cc#
16a#
8.f#
16a#
8.cc#
16a#
=86
8.g#
16b
8.dd#
16b
4g#
4g#
=87
8.a
16dd#
8.ff#
16dd#
4a
4a
=88
8.a#
16cc#
8.ff#
16cc#
4aa#
16gg#
16ff#
16ee#
16dd#
=89
2cc#[
8cc#]
8b
8a#
8g#
=90
4f#
2r
8.r
16cc#
=91
8.g#
16c#
8.b
16a#
8g#
4r
16r
16cc#
=92
8.f#
16c#
8.a#
16g#
8f#
4r
16r
16cc#
=93
8.g#
16c#
8.b
16a#
8g#
4r
16r
16cc#
=94
8f#
4r
16r
16cc#
8g#
4r
16r
16cc#
=95
8a#
4r
16r
16cc#
8e#
4r
16r
16cc#
=96
4f#
4r
4f#
4f#
=97
1f#
==
*-
